src/public/Number2.svg

<svg width="24" height="24" viewBox="0 0 24 24" fill="none" xmlns="http://www.w3.org/2000/svg">
<circle cx="12" cy="12" r="11.5" stroke="white"/>
<path d="M8.3157 17V16.1051L11.6765 12.4261C12.0709 11.9953 12.3957 11.6207 12.6509 11.3026C12.9061 10.9811 13.0951 10.6795 13.2177 10.3977C13.3436 10.1127 13.4066 9.81439 13.4066 9.50284C13.4066 9.14489 13.3204 8.83499 13.1481 8.57315C12.979 8.31132 12.747 8.10914 12.4521 7.96662C12.1571 7.8241 11.8256 7.75284 11.4577 7.75284C11.0666 7.75284 10.7253 7.83404 10.4336 7.99645C10.1452 8.15554 9.92152 8.37926 9.76243 8.66761C9.60665 8.95597 9.52876 9.29403 9.52876 9.68182H8.35547C8.35547 9.08523 8.49302 8.56155 8.76811 8.1108C9.04321 7.66004 9.41773 7.30871 9.89169 7.05682C10.369 6.80492 10.9042 6.67898 11.4975 6.67898C12.0941 6.67898 12.6228 6.80492 13.0835 7.05682C13.5442 7.30871 13.9054 7.64844 14.1673 8.07599C14.4291 8.50355 14.56 8.97917 14.56 9.50284C14.56 9.87737 14.4921 10.2436 14.3562 10.6016C14.2236 10.9562 13.9916 11.3523 13.6602 11.7898C13.332 12.224 12.8763 12.7543 12.293 13.3807L10.006 15.8267V15.9062H14.739V17H8.3157Z" fill="white"/>
</svg>

<svg xmlns="http://www.w3.org/2000/svg" width="24" height="24" fill="none" xmlns:v="https://vecta.io/nano"><circle cx="12" cy="12" r="11.5" stroke="#fff"/><path d="M8.316 17v-.895l3.361-3.679.974-1.123c.255-.322.444-.623.567-.905a2.19 2.19 0 0 0 .189-.895c0-.358-.086-.668-.258-.93s-.401-.464-.696-.607-.626-.214-.994-.214c-.391 0-.732.081-1.024.244s-.512.383-.671.671-.234.626-.234 1.014H8.355c0-.597.138-1.12.413-1.571s.65-.802 1.124-1.054 1.013-.378 1.606-.378 1.125.126 1.586.378.822.592 1.084 1.019.393.903.393 1.427a3.07 3.07 0 0 1-.204 1.099c-.133.355-.365.751-.696 1.188s-.784.965-1.367 1.591l-2.287 2.446v.079h4.733V17H8.316z" fill="#fff"/></svg>
